svg/fluentui-system-icons/ic_fluent_scan_type_checkmark_24_filled.svg

<svg width="24" height="24" viewBox="0 0 24 24" fill="none" xmlns="http://www.w3.org/2000/svg">
<path d="M5.5 4C4.67157 4 4 4.67157 4 5.5V8C4 8.55228 3.55228 9 3 9C2.44772 9 2 8.55228 2 8V5.5C2 3.567 3.567 2 5.5 2H8C8.55228 2 9 2.44772 9 3C9 3.55228 8.55228 4 8 4H5.5ZM5.5 20C4.67157 20 4 19.3284 4 18.5V16C4 15.4477 3.55228 15 3 15C2.44772 15 2 15.4477 2 16V18.5C2 20.433 3.567 22 5.5 22H8C8.55228 22 9 21.5523 9 21C9 20.4477 8.55228 20 8 20H5.5ZM20 5.5C20 4.67157 19.3284 4 18.5 4H16C15.4477 4 15 3.55228 15 3C15 2.44772 15.4477 2 16 2H18.5C20.433 2 22 3.567 22 5.5V8C22 8.55228 21.5523 9 21 9C20.4477 9 20 8.55228 20 8V5.5ZM7.75 6C7.19772 6 6.75 6.44772 6.75 7V8.5C6.75 9.05228 7.19772 9.5 7.75 9.5C8.30228 9.5 8.75 9.05228 8.75 8.5V8H11V16H9.75C9.19772 16 8.75 16.4477 8.75 17C8.75 17.5523 9.19772 18 9.75 18H11.0189C11.0064 17.835 11 17.6682 11 17.5C11 15.6566 11.7673 13.9925 13 12.8096V8H15.25V8.5C15.25 9.05228 15.6977 9.5 16.25 9.5C16.8023 9.5 17.25 9.05228 17.25 8.5V7C17.25 6.44772 16.8023 6 16.25 6H7.75ZM23 17.5C23 20.5376 20.5376 23 17.5 23C14.4624 23 12 20.5376 12 17.5C12 14.4624 14.4624 12 17.5 12C20.5376 12 23 14.4624 23 17.5ZM20.8536 15.1464C20.6583 14.9512 20.3417 14.9512 20.1464 15.1464L16.5 18.7929L14.8536 17.1464C14.6583 16.9512 14.3417 16.9512 14.1464 17.1464C13.9512 17.3417 13.9512 17.6583 14.1464 17.8536L16.1464 19.8536C16.3417 20.0488 16.6583 20.0488 16.8536 19.8536L20.8536 15.8536C21.0488 15.6583 21.0488 15.3417 20.8536 15.1464Z" fill="#212121"/>
</svg>

<svg xmlns="http://www.w3.org/2000/svg" width="24" height="24"><path d="M5.5 4A1.5 1.5 0 0 0 4 5.5V8a1 1 0 0 1-2 0V5.5A3.5 3.5 0 0 1 5.5 2H8a1 1 0 0 1 0 2H5.5Zm0 16A1.5 1.5 0 0 1 4 18.5V16a1 1 0 1 0-2 0v2.5A3.5 3.5 0 0 0 5.5 22H8a1 1 0 1 0 0-2H5.5ZM20 5.5A1.5 1.5 0 0 0 18.5 4H16a1 1 0 1 1 0-2h2.5A3.5 3.5 0 0 1 22 5.5V8a1 1 0 1 1-2 0V5.5ZM7.75 6a1 1 0 0 0-1 1v1.5a1 1 0 0 0 2 0V8H11v8H9.75a1 1 0 1 0 0 2h1.269A6.48 6.48 0 0 1 13 12.81V8h2.25v.5a1 1 0 1 0 2 0V7a1 1 0 0 0-1-1h-8.5ZM23 17.5a5.5 5.5 0 1 1-11 0 5.5 5.5 0 0 1 11 0Zm-2.146-2.354a.5.5 0 0 0-.708 0L16.5 18.793l-1.646-1.647a.5.5 0 0 0-.708.708l2 2a.5.5 0 0 0 .708 0l4-4a.5.5 0 0 0 0-.708Z"/></svg>
